; generated by PrusaSlicer 2.5.2+linux-x64-GTK2 on 2023-05-30 at 18:02:10 UTC


;
;

;
;

;
;
; 

; external perimeters extrusion width = 0.45mm
; perimeters extrusion width = 0.45mm
; infill extrusion width = 0.45mm
; solid infill extrusion width = 0.45mm
; top infill extrusion width = 0.45mm
; first layer extrusion width = 0.50mm

M73 P0 R33
M201 X2500 Y2500 Z200 E2500 ; sets maximum accelerations, mm/sec^2
M203 X200 Y200 Z40 E100 ; sets maximum feedrates, mm / sec
M204 P2000 R1200 T2000 ; sets acceleration (P, T) and retract acceleration (R), mm/sec^2
M205 X8.00 Y8.00 Z2.00 E10.00 ; sets the jerk limits, mm/sec
M205 S0 T0 ; sets the minimum extruding and travel feed rate, mm/sec
M107
;TYPE:Custom
M17 ; enable steppers
M862.3 P "MK4" ; printer model check
M862.1 P0.4 ; nozzle diameter check
M330 SYSLOG
M331 loadcell_raw
M331 loadcell_threshold
M331 loadcell_hysteresis
M331 loadcell_scale
M331 probe_z
M331 probe_z_raw
M331 probe_z_diff
M331 home_diff
M331 fsensor_raw
M331 temp_hbr
M331 temp_bed
M331 temp_noz
M331 temp_brd
M331 ttemp_bed
M331 ttemp_noz
M331 pos_z
M331 fan_speed
M331 fan_hbr_speed
M331 tmc_sg_x
M331 tmc_sg_y
M331 tmc_sg_z
M331 tmc_sg_e

M555 X81.2633 Y57.2065 W87.4734 H91.5869

G90 ; use absolute coordinates
M92 E380 ; set steps/mm for extruder
M83 ; extruder relative mode

M140 S60 ; set bed temp

M104 S170 ; set extruder temp for bed leveling
M109 R170 ; wait for temp


M84 E ; turn off E motor

G28 ; home all without mesh bed level

; probe to clean the nozzle
G1 X113.263 Y57.2065 Z5 F4800

M302 S160 ; lower cold extrusion limit to 160C


G1 E-2 F2400 ; retraction


M84 E ; turn off E motor

G29 P9 X81.2633 Y57.2065 W32 H4

M106 S100

G0 X81.2633 Y57.2065 Z40 F10000

M190 S60 ; wait for bed temp

M107

;
; MBL
;
M84 E ; turn off E motor
G29 ; mesh bed leveling
M104 S215 ; set extruder temp
G0 X81.2633 Y56.7065 Z30 F4800

M109 S215 ; wait for extruder temp
G1 Z0.2 F720
G92 E0

M569 S0 E ; set spreadcycle mode for extruder

;
; Extrude purge line
;

G1 E2 F2400 ; deretraction


; move right
G1 X113.263 E4.8 F1000
; move down
G1 Y55.2065 E0.225 F1000
; move left
G1 X81.2633 E9.6 F800

G92 E0
M221 S100 ; set flow to 100%
G21 ; set units to millimeters
G90 ; use absolute coordinates
M83 ; use relative distances for extrusion
M900 K0.06 ; Filament gcode

M142 S36 ; set heatbreak target temp
M107
;LAYER_CHANGE
;Z:0.2
;HEIGHT:0.2
;BEFORE_LAYER_CHANGE
G92 E0.0
;0.2


G1 E-.8 F2100
G1 Z.2 F720
;AFTER_LAYER_CHANGE
;0.2
G1 Z.4
G1 X92.215 Y76.968 F12000
G1 Z.2 F720
G1 E.8 F1500
M204 P600
;TYPE:Skirt/Brim
;WIDTH:0.5
G1 F1200
G1 X95.431 Y73.594 E.17717
G1 X98.939 Y70.627 E.17461
G1 X102.764 Y68.038 E.17553
G1 X106.821 Y65.883 E.1746
G1 X111.102 Y64.165 E.17534
G1 X115.598 Y62.902 E.17747
G1 X120.205 Y62.132 E.17751
G1 X124.859 Y61.865 E.17719
G1 X125.626 Y61.892 E.02918
G1 X129.796 Y62.132 E.15872
G1 X134.402 Y62.902 E.17751
G1 X138.899 Y64.165 E.17751
G1 X143.231 Y65.907 E.17747
G1 X147.286 Y68.067 E.17462
G1 X151.103 Y70.659 E.17534
G1 X154.625 Y73.646 E.17553
G1 X157.791 Y76.975 E.17461
G1 X160.628 Y80.683 E.17746
G1 X162.759 Y84.197 E.15618
G1 X163.176 Y84.919 E.03169
G1 X165.12 Y89.156 E.17718
G1 X166.584 Y93.537 E.17554
G1 X167.568 Y98.024 E.17459
G1 X168.069 Y102.61 E.17533
G1 X168.079 Y107.204 E.17462
G1 X167.588 Y111.848 E.17747
G1 X166.598 Y116.414 E.17756
G1 X165.024 Y121.085 E.18737
G1 X163.109 Y125.21 E.17284
G1 X162.576 Y126.173 E.04182
G1 X161.91 Y127.279 E.04908
G1 X160.744 Y129.147 E.08368
G1 X157.894 Y132.904 E.17921
G1 X154.648 Y136.331 E.17943
G1 X151.123 Y139.326 E.1758
G1 X147.281 Y141.936 E.17652
G1 X143.203 Y144.107 E.17559
G1 X138.892 Y145.837 E.17652
G1 X134.402 Y147.098 E.17727
G1 X129.788 Y147.869 E.17777
G1 X124.87 Y148.135 E.1872
G1 X120.282 Y147.877 E.17465
G1 X115.725 Y147.126 E.17553
G1 X111.279 Y145.895 E.17534
G1 X107.007 Y144.204 E.17462
G1 X102.875 Y142.029 E.17747
G1 X99.001 Y139.42 E.17751
G1 X95.433 Y136.407 E.17749
M73 P1 R33
G1 X93.244 Y134.118 E.12038
G1 X92.038 Y132.823 E.06725
G1 X89.255 Y129.147 E.17524
G1 X88.09 Y127.279 E.08366
G1 X87.424 Y126.173 E.04908
G1 X86.89 Y125.209 E.04187
M73 P1 R32
G1 X84.88 Y120.844 E.18263
G1 X83.422 Y116.487 E.17463
G1 X82.432 Y111.976 E.17552
G1 X81.931 Y107.39 E.17533
G1 X81.921 Y102.796 E.17462
G1 X82.412 Y98.152 E.17747
G1 X83.402 Y93.588 E.17751
G1 X84.879 Y89.157 E.17751
G1 X86.828 Y84.912 E.17751
G1 X89.223 Y80.903 E.17751
G1 X91.699 Y77.623 E.15619
G1 X92.178 Y77.015 E.0294
M204 P1000
G1 X92.536 Y77.298 F12000
M204 P600
G1 F1200
G1 X95.736 Y73.935 E.17641
G1 X99.206 Y70.999 E.17275
G1 X102.989 Y68.436 E.17367
G1 X107.024 Y66.292 E.17367
G1 X111.261 Y64.594 E.17348
G1 X115.709 Y63.345 E.1756
G1 X120.268 Y62.585 E.17563
G1 X124.874 Y62.322 E.17537
G1 X125.607 Y62.349 E.02788
G1 X129.733 Y62.585 E.15704
G1 X134.291 Y63.345 E.17563
G1 X138.74 Y64.594 E.17563
G1 X143.027 Y66.316 E.17559
G1 X147.06 Y68.465 E.17368
G1 X150.836 Y71.03 E.17348
G1 X154.319 Y73.987 E.17367
G1 X157.451 Y77.281 E.17275
G1 X160.257 Y80.951 E.17559
G1 X162.367 Y84.432 E.1547
G1 X162.765 Y85.12 E.0302
G1 X164.691 Y89.313 E.17536
G1 X166.14 Y93.647 E.17368
G1 X167.115 Y98.086 E.17274
G1 X167.612 Y102.623 E.17347
G1 X167.622 Y107.193 E.17368
G1 X167.135 Y111.787 E.17559
G1 X166.154 Y116.304 E.17567
G1 X164.604 Y120.904 E.1845
G1 X162.705 Y124.996 E.17144
G1 X162.183 Y125.941 E.04104
G1 X161.522 Y127.039 E.04871
G1 X160.362 Y128.896 E.08322
G1 X157.538 Y132.617 E.17755
G1 X154.343 Y135.991 E.1766
G1 X150.856 Y138.955 E.17393
G1 X147.055 Y141.538 E.17465
G1 X142.999 Y143.697 E.17466
G1 X138.734 Y145.408 E.17465
G1 X134.29 Y146.655 E.1754
G1 X129.726 Y147.416 E.17588
G1 X124.883 Y147.678 E.18433
G1 X120.344 Y147.424 E.17278
G1 X115.835 Y146.683 E.17367
G1 X111.436 Y145.465 E.17348
G1 X107.187 Y143.783 E.17368
G1 X103.099 Y141.63 E.17559
G1 X99.267 Y139.048 E.17563
G1 X95.737 Y136.066 E.17561
G1 X93.576 Y133.803 E.11894
G1 X92.395 Y132.538 E.06577
G1 X89.638 Y128.896 E.17362
G1 X88.478 Y127.039 E.0832
G1 X87.817 Y125.941 E.04871
G1 X87.294 Y124.995 E.04108
G1 X85.309 Y120.688 E.18026
G1 X83.866 Y116.377 E.17277
G1 X82.885 Y111.914 E.17366
G1 X82.388 Y107.377 E.17347
G1 X82.378 Y102.807 E.17368
G1 X82.865 Y98.213 E.17559
G1 X83.846 Y93.697 E.17563
G1 X85.309 Y89.314 E.17563
G1 X87.238 Y85.114 E.17563
G1 X89.609 Y81.148 E.17563
G1 X92.499 Y77.345 E.18156
M204 P1000
G1 X92.858 Y77.626 F12000
M204 P600
G1 F1200
G1 X96.041 Y74.276 E.17563
G1 X99.492 Y71.356 E.17182
G1 X103.235 Y68.821 E.17181
G1 X107.228 Y66.701 E.17181
G1 X111.419 Y65.022 E.17162
G1 X115.821 Y63.789 E.17373
G1 X120.33 Y63.038 E.17375
G1 X124.889 Y62.779 E.17355
G1 X129.67 Y63.038 E.18196
G1 X134.179 Y63.789 E.17375
G1 X138.581 Y65.023 E.17375
G1 X142.823 Y66.725 E.17372
G1 X146.813 Y68.85 E.17182
G1 X150.549 Y71.386 E.17162
M73 P2 R32
G1 X153.997 Y74.311 E.17181
G1 X157.112 Y77.587 E.17181
G1 X159.887 Y81.219 E.17372
G1 X162.354 Y85.321 E.18194
G1 X164.261 Y89.47 E.17354
G1 X165.697 Y93.757 E.17182
G1 X166.665 Y98.172 E.1718
G1 X167.156 Y102.661 E.17161
G1 X167.165 Y107.181 E.17182
G1 X166.682 Y111.727 E.17372
G1 X165.71 Y116.195 E.17378
G1 X164.184 Y120.723 E.18163
G1 X162.301 Y124.782 E.17004
G1 X161.789 Y125.709 E.04025
G1 X161.133 Y126.798 E.04834
G1 X159.98 Y128.645 E.08275
G1 X157.181 Y132.331 E.17588
G1 X154.019 Y135.668 E.17471
G1 X150.569 Y138.598 E.17206
G1 X146.808 Y141.153 E.17278
G1 X142.795 Y143.288 E.17278
G1 X138.575 Y144.979 E.17278
G1 X134.179 Y146.211 E.17352
G1 X129.663 Y146.963 E.17398
G1 X124.896 Y147.221 E.18145
G1 X120.382 Y146.968 E.17184
G1 X115.921 Y146.234 E.17181
G1 X111.57 Y145.028 E.17162
G1 X107.367 Y143.363 E.17182
G1 X103.323 Y141.232 E.17372
G1 X99.533 Y138.676 E.17375
G1 X96.041 Y135.725 E.17374
G1 X92.752 Y132.253 E.18179
G1 X90.02 Y128.645 E.17199
G1 X88.867 Y126.798 E.08274
G1 X88.211 Y125.709 E.04834
G1 X87.698 Y124.781 E.04028
G1 X85.739 Y120.531 E.17789
G1 X84.303 Y116.243 E.17183
G1 X83.335 Y111.828 E.1718
G1 X82.844 Y107.339 E.17161
G1 X82.835 Y102.819 E.17182
G1 X83.318 Y98.273 E.17372
G1 X84.29 Y93.806 E.17375
G1 X85.739 Y89.47 E.17375
G1 X87.648 Y85.316 E.17375
G1 X89.995 Y81.393 E.17375
G1 X92.821 Y77.674 E.17755
M204 P1000
G1 X93.18 Y77.955 F12000
M204 P600
G1 F1200
G1 X96.345 Y74.617 E.17484
G1 X99.758 Y71.727 E.16995
G1 X103.46 Y69.219 E.16995
G1 X107.409 Y67.121 E.16995
G1 X111.578 Y65.451 E.17068
G1 X115.932 Y64.232 E.17185
G1 X120.393 Y63.491 E.17187
G1 X124.904 Y63.236 E.17172
G1 X129.607 Y63.491 E.17901
G1 X134.068 Y64.232 E.17187
G1 X138.423 Y65.452 E.17187
G1 X142.619 Y67.134 E.17185
G1 X146.567 Y69.235 E.16995
G1 X150.282 Y71.758 E.17068
G1 X153.691 Y74.651 E.16995
G1 X156.772 Y77.893 E.16995
G1 X159.516 Y81.486 E.17185
G1 X161.944 Y85.522 E.179
G1 X163.832 Y89.627 E.17172
G1 X165.253 Y93.867 E.16996
G1 X166.212 Y98.234 E.16994
G1 X166.701 Y102.698 E.17068
G1 X166.708 Y107.17 E.16995
G1 X166.229 Y111.666 E.17185
G1 X165.266 Y116.085 E.17189
G1 X163.764 Y120.542 E.17877
G1 X161.897 Y124.568 E.16865
G1 X161.395 Y125.477 E.03946
G1 X160.744 Y126.558 E.04797
G1 X159.598 Y128.394 E.08228
G1 X156.841 Y132.026 E.17328
G1 X153.714 Y135.327 E.17283
G1 X150.283 Y138.242 E.17112
G1 X146.562 Y140.768 E.17091
G1 X142.591 Y142.879 E.17091
G1 X138.417 Y144.55 E.17091
G1 X134.068 Y145.768 E.17164
G1 X129.601 Y146.51 E.1721
G1 X124.909 Y146.764 E.17858
G1 X120.444 Y146.515 E.16997
G1 X116.031 Y145.79 E.16995
G1 X111.704 Y144.591 E.17068
G1 X107.547 Y142.942 E.16995
G1 X103.547 Y140.833 E.17185
G1 X99.799 Y138.304 E.17187
G1 X96.346 Y135.384 E.17186
M73 P3 R32
G1 X93.109 Y131.967 E.17888
G1 X90.402 Y128.394 E.17036
G1 X89.256 Y126.558 E.08227
G1 X88.605 Y125.477 E.04797
G1 X88.102 Y124.567 E.03949
G1 X86.168 Y120.373 E.17553
G1 X84.747 Y116.133 E.16996
G1 X83.788 Y111.766 E.16994
G1 X83.299 Y107.302 E.17068
G1 X83.292 Y102.83 E.16995
G1 X83.771 Y98.334 E.17185
G1 X84.734 Y93.916 E.17187
G1 X86.168 Y89.627 E.17187
G1 X88.058 Y85.519 E.17187
G1 X90.381 Y81.639 E.17187
G1 X93.143 Y78.002 E.17357
M204 P1000
G1 X93.503 Y78.283 F12000
M204 P600
G1 F1200
G1 X96.65 Y74.957 E.17402
G1 X100.044 Y72.084 E.16901
G1 X103.706 Y69.604 E.16809
G1 X107.613 Y67.531 E.16809
G1 X111.736 Y65.88 E.16881
G1 X116.043 Y64.676 E.16997
G1 X120.456 Y63.944 E.16999
G1 X124.918 Y63.693 E.16988
G1 X129.545 Y63.944 E.17608
G1 X133.957 Y64.676 E.16999
G1 X138.264 Y65.88 E.16999
G1 X142.416 Y67.544 E.16998
G1 X146.32 Y69.62 E.16809
G1 X149.996 Y72.114 E.16882
G1 X153.369 Y74.975 E.16808
G1 X156.432 Y78.199 E.16901
G1 X159.145 Y81.754 E.16997
G1 X161.533 Y85.723 E.17607
G1 X163.402 Y89.784 E.16988
G1 X164.816 Y94 E.16902
G1 X165.763 Y98.32 E.16807
G1 X166.245 Y102.735 E.16881
G1 X166.251 Y107.158 E.16809
G1 X165.776 Y111.605 E.16998
G1 X164.822 Y115.975 E.17
G1 X163.345 Y120.361 E.17592
G1 X161.493 Y124.354 E.16725
G1 X161.001 Y125.245 E.03868
G1 X160.355 Y126.317 E.04759
G1 X159.216 Y128.144 E.08181
G1 X156.485 Y131.739 E.17161
G1 X153.391 Y135.004 E.17094
G1 X149.996 Y137.886 E.16924
G1 X146.316 Y140.382 E.16904
G1 X142.388 Y142.469 E.16904
G1 X138.258 Y144.121 E.16904
G1 X133.957 Y145.324 E.16977
G1 X129.539 Y146.057 E.17021
G1 X124.922 Y146.307 E.17572
G1 X120.506 Y146.062 E.16809
G1 X116.118 Y145.341 E.16901
G1 X111.838 Y144.154 E.16881
G1 X107.727 Y142.522 E.16809
G1 X103.772 Y140.435 E.16998
G1 X100.065 Y137.932 E.16999
G1 X96.651 Y135.043 E.16998
G1 X93.466 Y131.681 E.17599
G1 X90.784 Y128.143 E.16873
G1 X89.645 Y126.317 E.08181
G1 X88.999 Y125.245 E.0476
G1 X88.506 Y124.354 E.03869
G1 X86.598 Y120.216 E.17316
G1 X85.184 Y116 E.16902
G1 X84.237 Y111.68 E.16807
G1 X83.755 Y107.265 E.16881
G1 X83.749 Y102.842 E.16809
G1 X84.224 Y98.395 E.16998
G1 X85.178 Y94.025 E.16999
G1 X86.598 Y89.784 E.16999
G1 X88.468 Y85.721 E.16999
G1 X90.766 Y81.884 E.16999
G1 X93.466 Y78.33 E.16963
M204 P1000
G1 X93.826 Y78.61 F12000
M204 P600
G1 F1200
G1 X93.909 Y78.503 E.00517
G1 X96.955 Y75.298 E.16803
G1 X100.311 Y72.455 E.16715
G1 X103.931 Y70.002 E.16622
G1 X107.816 Y67.94 E.16715
G1 X111.894 Y66.309 E.16694
G1 X116.154 Y65.119 E.1681
G1 X120.518 Y64.397 E.16811
G1 X124.932 Y64.15 E.16804
G1 X125.527 Y64.175 E.0226
G1 X129.482 Y64.397 E.15057
G1 X133.846 Y65.119 E.16811
G1 X138.106 Y66.309 E.16811
G1 X142.212 Y67.953 E.1681
G1 X146.095 Y70.018 E.16715
G1 X149.729 Y72.486 E.16695
G1 X153.063 Y75.316 E.16622
G1 X156.092 Y78.504 E.16714
G1 X158.774 Y82.021 E.16809
M73 P4 R32
G1 X161.123 Y85.925 E.17316
G1 X162.973 Y89.941 E.16804
G1 X164.372 Y94.11 E.16715
G1 X165.31 Y98.382 E.16621
G1 X165.788 Y102.748 E.16694
G1 X165.794 Y107.146 E.16715
M73 P4 R31
G1 X165.322 Y111.544 E.1681
G1 X164.379 Y115.865 E.16811
G1 X162.925 Y120.181 E.17307
G1 X161.089 Y124.14 E.16586
G1 X160.607 Y125.012 E.03789
G1 X159.967 Y126.077 E.04722
G1 X158.833 Y127.893 E.08135
G1 X156.144 Y131.434 E.16901
G1 X153.085 Y134.664 E.16906
G1 X149.729 Y137.514 E.16736
G1 X146.09 Y139.985 E.16716
G1 X142.184 Y142.06 E.1681
G1 X138.1 Y143.692 E.16716
G1 X133.846 Y144.881 E.16789
G1 X129.476 Y145.604 E.16832
G1 X124.934 Y145.85 E.17287
G1 X120.568 Y145.609 E.16622
G1 X116.228 Y144.897 E.16714
G1 X111.995 Y143.724 E.16694
G1 X107.907 Y142.102 E.16715
G1 X103.996 Y140.037 E.1681
G1 X100.331 Y137.56 E.16811
G1 X96.955 Y134.702 E.1681
G1 X93.823 Y131.395 E.17311
G1 X91.167 Y127.893 E.16708
G1 X90.033 Y126.077 E.08134
G1 X89.393 Y125.012 E.04722
G1 X88.91 Y124.14 E.03789
G1 X87.027 Y120.059 E.17081
G1 X85.628 Y115.89 E.16715
G1 X84.69 Y111.618 E.16621
G1 X84.212 Y107.252 E.16694
G1 X84.206 Y102.854 E.16715
G1 X84.678 Y98.456 E.1681
G1 X85.621 Y94.135 E.16811
G1 X87.027 Y89.941 E.16811
G1 X88.878 Y85.924 E.16811
G1 X91.152 Y82.13 E.16811
G1 X93.789 Y78.658 E.16571
M204 P1000
G1 X94.15 Y78.937 F12000
M204 P600
G1 F1200
G1 X94.249 Y78.809 E.00616
G1 X97.26 Y75.639 E.16619
G1 X100.577 Y72.827 E.16527
G1 X104.178 Y70.388 E.16528
G1 X108.019 Y68.35 E.16528
G1 X112.052 Y66.738 E.16507
G1 X116.265 Y65.563 E.16622
G1 X120.58 Y64.85 E.16623
G1 X124.946 Y64.607 E.16619
G1 X125.505 Y64.632 E.02126
G1 X129.42 Y64.85 E.14901
G1 X133.735 Y65.563 E.16623
G1 X137.948 Y66.738 E.16623
G1 X142.008 Y68.363 E.16622
G1 X145.848 Y70.403 E.16528
G1 X149.443 Y72.842 E.16508
G1 X152.758 Y75.656 E.16528
G1 X155.752 Y78.81 E.16527
G1 X158.403 Y82.288 E.16622
G1 X160.713 Y86.127 E.17027
G1 X162.544 Y90.098 E.16619
G1 X163.928 Y94.221 E.16528
G1 X164.861 Y98.468 E.16527
G1 X165.332 Y102.785 E.16507
G1 X165.336 Y107.134 E.16528
G1 X164.869 Y111.483 E.16622
G1 X163.935 Y115.755 E.16623
G1 X162.505 Y120 E.17022
G1 X160.685 Y123.926 E.16447
G1 X160.214 Y124.78 E.03709
G1 X159.578 Y125.837 E.04685
G1 X158.451 Y127.642 E.08088
G1 X155.788 Y131.148 E.16734
G1 X152.762 Y134.34 E.16717
G1 X149.443 Y137.158 E.16548
G1 X145.844 Y139.599 E.16529
G1 X141.981 Y141.65 E.16623
G1 X137.942 Y143.263 E.16528
G1 X133.735 Y144.437 E.16601
G1 X129.414 Y145.151 E.16644
G1 X124.947 Y145.393 E.17002
G1 X120.605 Y145.153 E.16528
G1 X116.314 Y144.448 E.16527
G1 X112.129 Y143.287 E.16507
G1 X108.087 Y141.682 E.16528
G1 X104.221 Y139.638 E.16622
G1 X100.597 Y137.189 E.16623
G1 X97.26 Y134.361 E.16622
G1 X94.18 Y131.109 E.17025
G1 X91.549 Y127.642 E.16544
G1 X90.422 Y125.837 E.08087
G1 X89.786 Y124.78 E.04685
G1 X89.315 Y123.926 E.0371
G1 X87.456 Y119.902 E.16846
M73 P5 R31
G1 X86.072 Y115.779 E.16528
G1 X85.139 Y111.532 E.16527
G1 X84.668 Y107.215 E.16507
G1 X84.664 Y102.866 E.16528
G1 X85.131 Y98.517 E.16622
G1 X86.065 Y94.245 E.16623
G1 X87.456 Y90.098 E.16623
G1 X89.288 Y86.126 E.16623
G1 X91.538 Y82.376 E.16623
G1 X94.113 Y78.985 E.16184
M204 P1000
G1 X94.474 Y79.264 F12000
M204 P600
G1 F1200
G1 X94.589 Y79.115 E.00712
G1 X97.565 Y75.979 E.16433
G1 X100.844 Y73.198 E.1634
G1 X104.424 Y70.773 E.16434
G1 X108.222 Y68.759 E.1634
G1 X112.21 Y67.168 E.1632
G1 X116.376 Y66.007 E.16434
G1 X120.642 Y65.303 E.16435
G1 X124.96 Y65.064 E.16434
G1 X125.483 Y65.088 E.01991
G1 X129.358 Y65.303 E.14749
G1 X133.624 Y66.007 E.16435
G1 X137.79 Y67.168 E.16435
G1 X141.805 Y68.772 E.16434
G1 X145.602 Y70.789 E.1634
G1 X149.176 Y73.213 E.16414
G1 X152.453 Y75.996 E.16341
G1 X155.412 Y79.116 E.1634
